dist/images/svg/sprite/icon-skype.svg

<svg width="25" height="24" viewBox="0 0 25 24" fill="none" xmlns="http://www.w3.org/2000/svg">
<path opacity="0.6" fill-rule="evenodd" clip-rule="evenodd" d="M22.5 12C22.5 12.676 22.4315 13.345 22.2985 13.9976C22.7547 14.8345 23 15.7796 23 16.75C23 18.275 22.3942 19.7375 21.3159 20.8159C20.2375 21.8942 18.775 22.5 17.25 22.5C16.2796 22.5 15.3345 22.2547 14.4976 21.7985C13.845 21.9315 13.176 22 12.5 22C9.84784 22 7.3043 20.9464 5.42893 19.0711C3.55357 17.1957 2.5 14.6522 2.5 12C2.5 11.324 2.56846 10.655 2.70153 10.0023C2.60404 9.82353 2.51593 9.63931 2.43769 9.45043C2.14873 8.75281 2 8.0051 2 7.25C2 6.4949 2.14873 5.74719 2.43769 5.04957C2.72666 4.35195 3.1502 3.71807 3.68414 3.18414C4.21807 2.6502 4.85195 2.22666 5.54957 1.93769C6.24719 1.64873 6.9949 1.5 7.75 1.5C8.5051 1.5 9.25281 1.64873 9.95043 1.93769C10.1393 2.01593 10.3235 2.10404 10.5023 2.20152C11.155 2.06846 11.824 2 12.5 2C15.1522 2 17.6957 3.05357 19.5711 4.92893C21.4464 6.8043 22.5 9.34784 22.5 12ZM8 14.5995C8 15.8495 9.5 17.5 12.801 17.5C15.949 17.5 17.449 15.949 17.5 13.8495C17.5 12.5 16.949 11.0995 14.5505 10.551L12.3495 10.051C11.4995 9.85 10.5505 9.6 10.5505 8.801C10.5505 8.0005 11.25 7.4495 12.449 7.4495C13.8555 7.4495 14.3696 8.03344 14.7953 8.51705C15.0962 8.85883 15.353 9.1505 15.8495 9.1505C16.5 9.1505 17 8.75 17 8.0995C17 6.5995 14.6505 5.5 12.6 5.5C10.4005 5.5 8.051 6.4 8.051 8.949C8.051 10.199 8.5 11.5 10.8495 12.1L13.8005 12.85C14.699 13.1 14.9 13.6 14.9 14.051C14.9 14.801 14.15 15.551 12.8005 15.551C11.266 15.551 10.7373 14.8633 10.2921 14.2843C9.96849 13.8634 9.68904 13.5 9.0995 13.5C8.449 13.5 8 13.949 8 14.5995Z" fill="white"/>
</svg>

<svg width="25" height="24" fill="none" xmlns="http://www.w3.org/2000/svg"><path opacity=".6" fill-rule="evenodd" clip-rule="evenodd" d="M22.5 12c0 .676-.069 1.345-.201 1.998a5.75 5.75 0 0 1-7.801 7.8A10.002 10.002 0 0 1 2.702 10.003a5.744 5.744 0 0 1-.264-4.952 5.75 5.75 0 0 1 8.064-2.848A10 10 0 0 1 22.5 12ZM8 14.6c0 1.25 1.5 2.9 4.801 2.9 3.148 0 4.648-1.551 4.699-3.65 0-1.35-.551-2.75-2.95-3.299l-2.2-.5c-.85-.201-1.8-.451-1.8-1.25 0-.8.7-1.352 1.899-1.352 1.406 0 1.92.584 2.346 1.068.301.342.558.633 1.055.633.65 0 1.15-.4 1.15-1.05 0-1.5-2.35-2.6-4.4-2.6-2.2 0-4.549.9-4.549 3.449 0 1.25.449 2.551 2.799 3.151l2.95.75c.899.25 1.1.75 1.1 1.201 0 .75-.75 1.5-2.1 1.5-1.534 0-2.063-.688-2.508-1.267-.324-.42-.603-.784-1.192-.784-.651 0-1.1.449-1.1 1.1Z" fill="#fff"/></svg>
